other/sente_online_go.svg

<?xml version="1.0" encoding="UTF-8" standalone="no"?>
<svg
   id="a"
   viewBox="0 0 48 48"
   version="1.1"
   sodipodi:docname="sente_online_go.svg"
   inkscape:version="1.3 (0e150ed6c4, 2023-07-21)"
   xmlns:inkscape="http://www.inkscape.org/namespaces/inkscape"
   xmlns:sodipodi="http://sodipodi.sourceforge.net/DTD/sodipodi-0.dtd"
   xmlns="http://www.w3.org/2000/svg"
   xmlns:svg="http://www.w3.org/2000/svg">
  <sodipodi:namedview
     id="namedview1"
     pagecolor="#ffffff"
     bordercolor="#666666"
     borderopacity="1.0"
     inkscape:showpageshadow="2"
     inkscape:pageopacity="0.0"
     inkscape:pagecheckerboard="0"
     inkscape:deskcolor="#d1d1d1"
     inkscape:zoom="4.9166667"
     inkscape:cx="-8.440678"
     inkscape:cy="17.79661"
     inkscape:window-width="1366"
     inkscape:window-height="702"
     inkscape:window-x="0"
     inkscape:window-y="0"
     inkscape:window-maximized="1"
     inkscape:current-layer="a" />
  <defs
     id="defs1">
    <style
       id="style1">.o{fill:none;stroke:#fff;stroke-linecap:round;stroke-linejoin:round;}</style>
  </defs>
  <path
     id="b"
     class="o"
     d="m 15.6,9.0689 h -4.5306 c -1.1046,0 -2,0.8954 -2,2 v 13.922625 m 0,7.70339 V 36.9615 c 0,1.1046 0.8954,2 2,2 h 13.739262 m 7.69428,0 H 36.962 c 1.1046,0 2,-0.8954 2,-2 v -4.317432 m 0,-7.576271 V 11.0689 c 0,-1.1046 -0.8954,-2 -2,-2 H 22.8"
     style="stroke:#ffffff;stroke-opacity:1"
     sodipodi:nodetypes="cssccssccssccssc" />
  <path
     id="c"
     class="o"
     d="M 38.962,19.1678 H 32.5 m -7.54752,0 H 22.7 m -7.1,0 H 9.0694"
     style="stroke:#ffffff;stroke-opacity:1"
     sodipodi:nodetypes="cccccc" />
  <path
     id="d"
     class="o"
     d="m 13.0694,28.8627 2.409048,0 m 7.370689,0 2.085366,0 m 7.658326,0 H 34.962"
     style="stroke:#ffffff;stroke-opacity:1"
     sodipodi:nodetypes="cccccc" />
  <path
     id="e"
     class="o"
     d="m32.4169,38.9615c0,1.9627-1.591,3.5537-3.5537,3.5537h0c-1.9627,0-3.5537-1.591-3.5537-3.5537h0c0-1.9627,1.591-3.5537,3.5537-3.5537s3.5537,1.591,3.5537,3.5537Z"
     style="stroke:#ffffff;stroke-opacity:1" />
  <path
     id="f"
     class="o"
     d="m22.722,28.8627c0,1.9627-1.591,3.5537-3.5537,3.5537s-3.5537-1.591-3.5537-3.5537,1.591-3.5537,3.5537-3.5537h0c1.9627,0,3.5537,1.591,3.5537,3.5537h0Z"
     style="stroke:#ffffff;stroke-opacity:1" />
  <path
     id="g"
     class="o"
     d="m12.5558,28.8627c0,1.9627-1.591,3.5537-3.5537,3.5537s-3.5537-1.591-3.5537-3.5537,1.591-3.5537,3.5537-3.5537h0c1.9627,0,3.5537,1.591,3.5537,3.5537h0Z"
     style="stroke:#ffffff;stroke-opacity:1" />
  <path
     id="h"
     class="o"
     d="m32.4169,28.8627c0,1.9627-1.591,3.5537-3.5537,3.5537s-3.5537-1.591-3.5537-3.5537,1.591-3.5537,3.5537-3.5537h0c1.9627,0,3.5537,1.591,3.5537,3.5537h0Z"
     style="stroke:#ffffff;stroke-opacity:1" />
  <path
     id="i"
     class="o"
     d="m42.5157,28.8627c0,1.9627-1.591,3.5537-3.5537,3.5537s-3.5537-1.591-3.5537-3.5537,1.591-3.5537,3.5537-3.5537h0c1.9627,0,3.5537,1.591,3.5537,3.5537h0Z"
     style="stroke:#ffffff;stroke-opacity:1" />
  <path
     id="j"
     class="o"
     d="m22.722,19.1678c0,1.9627-1.591,3.5537-3.5537,3.5537h0c-1.9627,0-3.5537-1.591-3.5537-3.5537h0c0-1.9627,1.591-3.5537,3.5537-3.5537h0c1.9627,0,3.5537,1.591,3.5537,3.5537h0Z"
     style="stroke:#ffffff;stroke-opacity:1" />
  <path
     id="k"
     class="o"
     d="m32.4169,19.1005c0,1.9627-1.591,3.5537-3.5537,3.5537h0c-1.9627,0-3.5537-1.591-3.5537-3.5537h0c0-1.9627,1.591-3.5537,3.5537-3.5537h0c1.9627,0,3.5537,1.591,3.5537,3.5537h0Z"
     style="stroke:#ffffff;stroke-opacity:1" />
  <path
     id="l"
     class="o"
     d="m22.722,9.0689c0,1.9627-1.591,3.5537-3.5537,3.5537s-3.5537-1.591-3.5537-3.5537,1.591-3.5537,3.5537-3.5537,3.5537,1.591,3.5537,3.5537Z"
     style="stroke:#ffffff;stroke-opacity:1" />
  <path
     id="m"
     class="o"
     d="m 28.8632,34.9615 0,-2.36828 m 0,-7.322034 v -2.386094 m 0,-7.496531 V 9.0689"
     style="stroke:#ffffff;stroke-opacity:1"
     sodipodi:nodetypes="cccccc" />
  <path
     id="n"
     class="o"
     d="M 19.1683,12.889147 V 15.4 m 0,7.3 v 2.64798 m 0,7.208894 v 6.467474"
     style="stroke:#ffffff;stroke-width:0.935042;stroke-opacity:1"
     sodipodi:nodetypes="cccccc" />
</svg>

<?xml version="1.0" encoding="UTF-8"?><svg id="b" xmlns="http://www.w3.org/2000/svg" viewBox="0 0 48 48"><defs><style>.p{fill:none;stroke:#fff;stroke-linecap:round;stroke-linejoin:round;}</style></defs><path id="c" class="p" d="m15.6,9.0689h-4.5306c-1.1046,0-2,.8954-2,2v13.9226m0,7.7034v4.2666c0,1.1046.8954,2,2,2h13.7393m7.6943,0h4.4591c1.1046,0,2-.8954,2-2v-4.3174m0-7.5763v-13.9989c0-1.1046-.8954-2-2-2h-14.162"/><path id="d" class="p" d="m38.962,19.1678h-6.462m-7.5475,0h-2.2525m-7.1,0h-6.5306"/><path id="e" class="p" d="m13.0694,28.8627h2.409m7.3707,0h2.0854m7.6583,0h2.3692"/><path id="f" class="p" d="m32.4169,38.9615c0,1.9627-1.591,3.5537-3.5537,3.5537h0c-1.9627,0-3.5537-1.591-3.5537-3.5537h0c0-1.9627,1.591-3.5537,3.5537-3.5537s3.5537,1.591,3.5537,3.5537Z"/><path id="g" class="p" d="m22.722,28.8627c0,1.9627-1.591,3.5537-3.5537,3.5537s-3.5537-1.591-3.5537-3.5537,1.591-3.5537,3.5537-3.5537h0c1.9627,0,3.5537,1.591,3.5537,3.5537h0Z"/><path id="h" class="p" d="m12.5558,28.8627c0,1.9627-1.591,3.5537-3.5537,3.5537s-3.5537-1.591-3.5537-3.5537,1.591-3.5537,3.5537-3.5537h0c1.9627,0,3.5537,1.591,3.5537,3.5537h0Z"/><path id="i" class="p" d="m32.4169,28.8627c0,1.9627-1.591,3.5537-3.5537,3.5537s-3.5537-1.591-3.5537-3.5537,1.591-3.5537,3.5537-3.5537h0c1.9627,0,3.5537,1.591,3.5537,3.5537h0Z"/><path id="j" class="p" d="m42.5157,28.8627c0,1.9627-1.591,3.5537-3.5537,3.5537s-3.5537-1.591-3.5537-3.5537,1.591-3.5537,3.5537-3.5537h0c1.9627,0,3.5537,1.591,3.5537,3.5537h0Z"/><path id="k" class="p" d="m22.722,19.1678c0,1.9627-1.591,3.5537-3.5537,3.5537h0c-1.9627,0-3.5537-1.591-3.5537-3.5537h0c0-1.9627,1.591-3.5537,3.5537-3.5537h0c1.9627,0,3.5537,1.591,3.5537,3.5537h0Z"/><path id="l" class="p" d="m32.4169,19.1005c0,1.9627-1.591,3.5537-3.5537,3.5537h0c-1.9627,0-3.5537-1.591-3.5537-3.5537h0c0-1.9627,1.591-3.5537,3.5537-3.5537h0c1.9627,0,3.5537,1.591,3.5537,3.5537h0Z"/><path id="m" class="p" d="m22.722,9.0689c0,1.9627-1.591,3.5537-3.5537,3.5537s-3.5537-1.591-3.5537-3.5537,1.591-3.5537,3.5537-3.5537,3.5537,1.591,3.5537,3.5537Z"/><path id="n" class="p" d="m28.8632,34.9615v-2.3683m0-7.322v-2.3861m0-7.4965v-6.3197"/><path id="o" class="p" d="m19.1683,12.8891v2.5109m0,7.3v2.648m0,7.2089v6.4675"/></svg>
